X: 38722
T: Streamstown, The
R: barndance
M: 4/4
K: Dmajor
dF FE D4|dG GE E2~E2|dF FE ~D2 D/E/F/G/|ABAF FD D2:|
d2 fd c2 ec|d2 fd Bd AB|d2 fd c2 ec|ABAG FD D2:|

